static/images/cli-man.svg

<svg height="120" viewBox="0 0 120 120" width="120" xmlns="http://www.w3.org/2000/svg"><path d="m118.139999 29.0642945c1.922714 2.721348 2.354555 5.8006426 1.296532 9.2391381l-19.8154618 64.8824134c-.9111312 3.057472-2.7492941 5.622548-5.5114601 7.699742-2.7624184 2.075689-5.7050439 3.114412-8.8263622 3.114412h-66.5103024c-3.6995459 0-7.2658293-1.275514-10.70086944-3.830305-3.43478776-2.553788-5.82417242-5.694789-7.16941591-9.416732-1.15367881-3.2001991-1.2011283-6.2320852-.1443676-9.0976654 0-.1906373.07243619-.8342892.21680378-1.9312064.14411521-1.098673.23951897-1.9828791.28797802-2.6506115.04871144-.3832813-.02372474-.8964971-.21554183-1.540149-.19206947-.6454077-.26475805-1.1107133-.21680378-1.3974218.09616093-.5255069.2884828-1.0266824.57646082-1.5040282.28848279-.477095.68448412-1.0387227 1.18901353-1.6823745.50377223-.6436519.90103551-1.2052795 1.18825636-1.6833778 1.10572453-1.8123089 2.18671476-3.9991198 3.24347546-6.5521551 1.05701309-2.5547911 1.7778415-4.740097 2.16172806-6.5531584.14386281-.477095.15572518-1.1929884.03634429-2.1476801-.11963329-.9546917-.13225283-1.6231766-.03634429-2.0052037.14386281-.523751.55298846-1.1922359 1.22485303-2.0042004.6733789-.8124663 1.0812426-1.3610503 1.224853-1.6472571 1.0093113-1.7184953 2.0176129-3.9150889 3.0269241-6.5882758 1.0093112-2.6739395 1.6087396-4.8221213 1.8018187-6.4457995.048459-.4296865-.0123672-1.1929884-.1804595-2.2916615-.1680924-1.0979205-.1559776-1.7666562.0363443-2.0052037.1915646-.6205747.7198188-1.3480066 1.5847624-2.1832992.8649436-.8357942 1.3929454-1.3730905 1.5850149-1.6113871.9123931-1.2406477 1.9343238-3.2583934 3.0627635-6.0517321 1.1284398-2.7938403 1.7891991-5.0970403 1.9810162-6.9111051.0487115-.382278-.0237247-.9905616-.2155418-1.8253524-.1920695-.8360451-.239519-1.46866-.1441152-1.8978449.0954037-.382278.3122075-.8119645.6481398-1.2893104.3361847-.4773458.7687827-1.0266824 1.2965321-1.6472571.5290113-.6208255.9366226-1.122001 1.2251054-1.5040282.3846437-.5726645.7798879-1.3005981 1.1887611-2.1838008.4076114-.8842061.7682779-1.7202512 1.0804855-2.5078844.3122075-.7876332.6971037-1.64725704 1.1526692-2.57912244.4560704-.9306112.9250127-1.69466557 1.4053126-2.29166144.4800475-.59649418 1.1170821-1.15686761 1.9095895-1.68212364.7925074-.52600854 1.6574511-.80017513 2.5938213-.82500815.9366226-.02282632 2.0776819.10811143 3.4229254.39406744l-.071679.21547035c1.8255434-.42993736 3.0509012-.64415352 3.6753163-.64415352h54.8357089c3.5551783 0 6.2928623 1.33722057 8.2148193 4.01015668 1.921956 2.67293612 2.35405 5.77656212 1.297541 9.30937292l-19.744035 64.8841696c-1.7283729 5.6807417-3.4451358 9.3454937-5.1520554 10.9927507-1.7056577 1.6472571-4.7918936 2.4712619-9.2597174 2.4712619h-62.6186871c-1.29779405 0-2.21043955.3589501-2.73844131 1.0755959-.52875894.7640544-.55298846 1.7897334-.07268858 3.0790438 1.15342642 3.3444315 4.61168649 5.0130095 10.37629469 5.0130095h66.5095453c1.3931978 0 2.7379365-.369987 4.0354781-1.110713 1.2955225-.740225 2.1367414-1.730787 2.5218899-2.971936l21.6172808-70.6835581c.336689-1.0512645.45607-2.4120639.358395-4.0839032 1.82832.716395 3.246756 1.7420741 4.253796 3.0790438zm-81.8481138.5922121h7.0812403l.4936578-1.8653024h-7.0812403zm8.6356589 0h7.0812403l.4936578-1.8653024h-7.0812403zm7.2141072 5.3713798h2.0725581l1.4169808-5.3541085c.149317-.5641992.3748335-1.0247631.6765562-1.3817054.1991169-.2302854.4190606-.4087539.6598376-.5354109.2116539-.1036284.4383773-.1554419.6801769-.1554419.2417997 0 .4410979.0518135.5979006.1554419.1737367.126657.299216.3051255.3764415.5354109.112791.3569423.0945282.8175062-.0547888 1.3817054l-1.4169807 5.3541085h2.0725581l1.4169808-5.3541085c.2803503-1.0593128.3146772-1.9286271.1029819-2.607969-.145984-.4490565-.3842422-.7887224-.7147816-1.0190078-.3020913-.2072568-.6891736-.3108837-1.1612586-.3108837-.4720851 0-.9082607.1036269-1.3085399.3108837-.4378693.2187712-.8455867.5411659-1.2231645.9671938l1.2387155-4.6805271h-2.0725582zm12.260611.1381705c.7944846 0 1.5237583-.1669544 2.1878431-.5008682.5973716-.299371 1.114299-.7081214 1.5507979-1.2262635.1699938-.2072569.3257612-.4260247.4673068-.6563101l-1.7297091-.7081241c-.0826246.1381713-.1767619.2763404-.282415.4145117-.2167258.2533139-.4642685.4490535-.7426356.5872248-.2929286.1496855-.6121022.2245271-.9575303.2245271-.3223995 0-.5862114-.0690846-.7914437-.2072558-.2052322-.1381712-.3476451-.3396679-.4272431-.6044961-.0934846-.299371-.0938427-.6678221-.0010744-1.1053644h5.2850232l.4525197-1.7098604c.234641-.8865988.2557667-1.6407721.0633778-2.2625427-.1622431-.5181421-.4585831-.9211355-.8890288-1.2089922-.458894-.3108853-1.0625457-.4663256-1.8109732-.4663256s-1.4343546.1554403-2.057802.4663256c-.58281.2878567-1.0924568.6908501-1.5289557 1.2089922-.5214957.6217706-.8995585 1.3759439-1.1341995 2.2625427l-.4113815 1.5544186c-.2285464.8635702-.2451013 1.6004724-.0496651 2.2107287.1622432.5181421.4628166.9268925.9017293 1.2262635.4758279.3339138 1.1109746.5008682 1.9054592.5008682zm-.2324456-5.6477209c.14492-.4605708.3448723-.846293.5998631-1.1571783.2282401-.2533139.4685021-.4432965.7207934-.5699535.240777-.1266569.5050899-.1899845.7929466-.1899845s.51865.0633276.6923867.1899845c.185251.126657.3249541.3166396.4191136.5699535.0904373.3108853.0862246.6966075-.0126383 1.1571783zm5.7612919 5.5095504h6.0449612l.4936579-1.8653023h-1.8653024l2.8659579-10.8291163h-3.9378604l-.4936578 1.8653023h1.8653023l-2.3723001 8.963814h-2.1071008zm7.1804837 3.5406201h2.0725581l1.2387155-4.6805271c.1520786.426028.3891506.7484227.7112231.9671938.2905769.2072569.6776592.3108837 1.1612585.3108837.4951136 0 .9673551-.1093839 1.4167387-.328155.4785067-.2417997.912637-.5987367 1.3024039-1.0708217.5682278-.6678276.9879395-1.5141137 1.259148-2.5388837l.4113815-1.5544186c.2712084-1.02477.2994409-1.8710561.0846983-2.5388837-.1398895-.4720851-.3850909-.8290221-.7356116-1.0708217-.3335867-.2187712-.7479306-.3281551-1.2430442-.3281551-.4835993 0-.925532.1036269-1.3258112.3108837-.4378693.2187712-.8455868.5411659-1.2231645.9671938l.3016798-1.1399069h-2.0725582zm4.9520177-5.2677519c-.2533139 0-.4583692-.0518134-.6151719-.1554419-.1737367-.1266569-.2992159-.3051254-.3764415-.5354108-.112791-.3569424-.0945282-.8175062.0547888-1.3817054l.4113815-1.5544186c.149317-.5641992.3748335-1.0247631.6765562-1.3817054.1991169-.2302854.4190606-.4087539.6598376-.5354109.2116539-.1036284.4441343-.1554419.6974482-.1554419.2763425 0 .5013787.0633276.6751154.1899845.185251.126657.3249541.3166396.4191136.5699535.1012767.3569424.0833514.794478-.0537764 1.3126202l-.4113816 1.5544186c-.1371278.5181421-.3507928.9556778-.6410012 1.3126201-.2282401.253314-.4685021.4432965-.7207934.5699535-.240777.126657-.4993328.1899845-.7756753.1899845z" fill="#fff"/></svg>

<?xml version="1.0" encoding="UTF-8"?>
<svg width="120px" height="120px" viewBox="0 0 120 120" version="1.1" xmlns="http://www.w3.org/2000/svg" xmlns:xlink="http://www.w3.org/1999/xlink">
    <!-- Generator: Sketch 50.2 (55047) - http://www.bohemiancoding.com/sketch -->
    <title>cli-man</title>
    <desc>Created with Sketch.</desc>
    <defs></defs>
    <g id="cli-man" stroke="none" stroke-width="1" fill="none" fill-rule="evenodd">
        <path d="M118.139999,29.0642945 C120.062713,31.7856425 120.494554,34.8649371 119.436531,38.3034326 L99.6210692,103.185846 C98.709938,106.243318 96.8717751,108.808394 94.1096091,110.885588 C91.3471907,112.961277 88.4045652,114 85.2832469,114 L18.7729445,114 C15.0733986,114 11.5071152,112.724486 8.07207506,110.169695 C4.6372873,107.615907 2.24790264,104.474906 0.902659145,100.752963 C-0.251019661,97.5527639 -0.29846915,94.5208778 0.75829155,91.6552976 C0.75829155,91.4646603 0.830727739,90.8210084 0.975095334,89.7240912 C1.11921054,88.6254182 1.2146143,87.7412121 1.26307335,87.0734797 C1.31178479,86.6901984 1.23934861,86.1769826 1.04753152,85.5333307 C0.855462047,84.887923 0.782773467,84.4226174 0.830727739,84.1359089 C0.926888672,83.610402 1.11921054,83.1092265 1.40718856,82.6318807 C1.69567135,82.1547857 2.09167268,81.593158 2.59620209,80.9495062 C3.09997432,80.3058543 3.4972376,79.7442267 3.78445845,79.2661284 C4.89018298,77.4538195 5.97117321,75.2670086 7.02793391,72.7139733 C8.084947,70.1591822 8.80577541,67.9738763 9.18966197,66.1608149 C9.33352478,65.6837199 9.34538715,64.9678265 9.22600626,64.0131348 C9.10637297,63.0584431 9.09375343,62.3899582 9.18966197,62.0079311 C9.33352478,61.4841801 9.74265043,60.8156952 10.414515,60.0037307 C11.0878939,59.1912644 11.4957576,58.6426804 11.639368,58.3564736 C12.6486793,56.6379783 13.6569809,54.4413847 14.6662921,51.7681978 C15.6756033,49.0942583 16.2750317,46.9460765 16.4681108,45.3223983 C16.5165698,44.8927118 16.4557436,44.1294099 16.2876513,43.0307368 C16.1195589,41.9328163 16.1316737,41.2640806 16.3239956,41.0255331 C16.5155602,40.4049584 17.0438144,39.6775265 17.908758,38.8422339 C18.7737016,38.0064397 19.3017034,37.4691434 19.4937729,37.2308468 C20.406166,35.9901991 21.4280967,33.9724534 22.5565364,31.1791147 C23.6849762,28.3852744 24.3457355,26.0820744 24.5375526,24.2680096 C24.5862641,23.8857316 24.5138279,23.277448 24.3220108,22.4426572 C24.1299413,21.6066121 24.0824918,20.9739972 24.1778956,20.5448123 C24.2732993,20.1625343 24.4901031,19.7328478 24.8260354,19.2555019 C25.1622201,18.7781561 25.5948181,18.2288195 26.1225675,17.6082448 C26.6515788,16.9874193 27.0591901,16.4862438 27.3476729,16.1042166 C27.7323166,15.5315521 28.1275608,14.8036185 28.536434,13.9204158 C28.9440454,13.0362097 29.3047119,12.2001646 29.6169195,11.4125314 C29.929127,10.6248982 30.3140232,9.76527436 30.7695887,8.83340896 C31.2256591,7.90279776 31.6946014,7.13874339 32.1749013,6.54174752 C32.6549488,5.94525334 33.2919834,5.38487991 34.0844908,4.85962388 C34.8769982,4.33361534 35.7419419,4.05944875 36.6783121,4.03461573 C37.6149347,4.01178941 38.755994,4.14272716 40.1012375,4.42868317 L40.0295585,4.64415352 C41.8551019,4.21421616 43.0804597,4 43.7048748,4 L98.5405837,4 C102.095762,4 104.833446,5.33722057 106.755403,8.01015668 C108.677359,10.6830928 109.109453,13.7867188 108.052944,17.3195296 L88.308909,82.2036992 C86.5805361,87.8844409 84.8637732,91.5491929 83.1568536,93.1964499 C81.4511959,94.843707 78.36496,95.6677118 73.8971362,95.6677118 L11.2784491,95.6677118 C9.98065505,95.6677118 9.06800955,96.0266619 8.54000779,96.7433077 C8.01124885,97.5073621 7.98701933,98.5330411 8.46731921,99.8223515 C9.62074563,103.166783 13.0790057,104.835361 18.8436139,104.835361 L85.3531592,104.835361 C86.746357,104.835361 88.0910957,104.465374 89.3886373,103.724648 C90.6841598,102.984423 91.5253787,101.993861 91.9105272,100.752712 L113.527808,30.0691539 C113.864497,29.0178894 113.983878,27.65709 113.886203,25.9852507 C115.714523,26.7016457 117.132959,27.7273248 118.139999,29.0642945 Z M36.2918852,29.6565066 L43.3731255,29.6565066 L43.8667833,27.7912042 L36.785543,27.7912042 L36.2918852,29.6565066 Z M44.9275441,29.6565066 L52.0087844,29.6565066 L52.5024422,27.7912042 L45.4212019,27.7912042 L44.9275441,29.6565066 Z M52.1416513,35.0278864 L54.2142094,35.0278864 L55.6311902,29.6737779 C55.7805072,29.1095787 56.0060237,28.6490148 56.3077464,28.2920725 C56.5068633,28.0617871 56.726807,27.8833186 56.967584,27.7566616 C57.1792379,27.6530332 57.4059613,27.6012197 57.6477609,27.6012197 C57.8895606,27.6012197 58.0888588,27.6530332 58.2456615,27.7566616 C58.4193982,27.8833186 58.5448775,28.0617871 58.622103,28.2920725 C58.734894,28.6490148 58.7166312,29.1095787 58.5673142,29.6737779 L57.1503335,35.0278864 L59.2228916,35.0278864 L60.6398724,29.6737779 C60.9202227,28.6144651 60.9545496,27.7451508 60.7428543,27.0658089 C60.5968703,26.6167524 60.3586121,26.2770865 60.0280727,26.0468011 C59.7259814,25.8395443 59.3388991,25.7359174 58.8668141,25.7359174 C58.394729,25.7359174 57.9585534,25.8395443 57.5582742,26.0468011 C57.1204049,26.2655723 56.7126875,26.587967 56.3351097,27.0139949 L57.5738252,22.3334678 L55.501267,22.3334678 L52.1416513,35.0278864 Z M64.4022623,35.1660569 C65.1967469,35.1660569 65.9260206,34.9991025 66.5901054,34.6651887 C67.187477,34.3658177 67.7044044,33.9570673 68.1409033,33.4389252 C68.3108971,33.2316683 68.4666645,33.0129005 68.6082101,32.7826151 L66.878501,32.074491 C66.7958764,32.2126623 66.7017391,32.3508314 66.596086,32.4890027 C66.3793602,32.7423166 66.1318175,32.9380562 65.8534504,33.0762275 C65.5605218,33.225913 65.2413482,33.3007546 64.8959201,33.3007546 C64.5735206,33.3007546 64.3097087,33.23167 64.1044764,33.0934988 C63.8992442,32.9553276 63.7568313,32.7538309 63.6772333,32.4890027 C63.5837487,32.1896317 63.5833906,31.8211806 63.6761589,31.3836383 L68.9611821,31.3836383 L69.4137018,29.6737779 C69.6483428,28.7871791 69.6694685,28.0330058 69.4770796,27.4112352 C69.3148365,26.8930931 69.0184965,26.4900997 68.5880508,26.202243 C68.1291568,25.8913577 67.5255051,25.7359174 66.7770776,25.7359174 C66.0286501,25.7359174 65.342723,25.8913577 64.7192756,26.202243 C64.1364656,26.4900997 63.6268188,26.8930931 63.1903199,27.4112352 C62.6688242,28.0330058 62.2907614,28.7871791 62.0561204,29.6737779 L61.6447389,31.2281965 C61.4161925,32.0917667 61.3996376,32.8286689 61.5950738,33.4389252 C61.757317,33.9570673 62.0578904,34.3658177 62.4968031,34.6651887 C62.972631,34.9991025 63.6077777,35.1660569 64.4022623,35.1660569 Z M64.1698167,29.518336 C64.3147367,29.0577652 64.514689,28.672043 64.7696798,28.3611577 C64.9979199,28.1078438 65.2381819,27.9178612 65.4904732,27.7912042 C65.7312502,27.6645473 65.9955631,27.6012197 66.2834198,27.6012197 C66.5712765,27.6012197 66.8020698,27.6645473 66.9758065,27.7912042 C67.1610575,27.9178612 67.3007606,28.1078438 67.3949201,28.3611577 C67.4853574,28.672043 67.4811447,29.0577652 67.3822818,29.518336 L64.1698167,29.518336 Z M69.9311086,35.0278864 L75.9760698,35.0278864 L76.4697277,33.1625841 L74.6044253,33.1625841 L77.4703832,22.3334678 L73.5325228,22.3334678 L73.038865,24.1987701 L74.9041673,24.1987701 L72.5318672,33.1625841 L70.4247664,33.1625841 L69.9311086,35.0278864 Z M77.1115923,38.5685065 L79.1841504,38.5685065 L80.4228659,33.8879794 C80.5749445,34.3140074 80.8120165,34.6364021 81.134089,34.8551732 C81.4246659,35.0624301 81.8117482,35.1660569 82.2953475,35.1660569 C82.7904611,35.1660569 83.2627026,35.056673 83.7120862,34.8379019 C84.1905929,34.5961022 84.6247232,34.2391652 85.0144901,33.7670802 C85.5827179,33.0992526 86.0024296,32.2529665 86.2736381,31.2281965 L86.6850196,29.6737779 C86.956228,28.6490079 86.9844605,27.8027218 86.7697179,27.1348942 C86.6298284,26.6628091 86.384627,26.3058721 86.0341063,26.0640725 C85.7005196,25.8453013 85.2861757,25.7359174 84.7910621,25.7359174 C84.3074628,25.7359174 83.8655301,25.8395443 83.4652509,26.0468011 C83.0273816,26.2655723 82.6196641,26.587967 82.2420864,27.0139949 L82.5437662,25.874088 L80.471208,25.874088 L77.1115923,38.5685065 Z M82.06361,33.3007546 C81.8102961,33.3007546 81.6052408,33.2489412 81.4484381,33.1453127 C81.2747014,33.0186558 81.1492222,32.8401873 81.0719966,32.6099019 C80.9592056,32.2529595 80.9774684,31.7923957 81.1267854,31.2281965 L81.5381669,29.6737779 C81.6874839,29.1095787 81.9130004,28.6490148 82.2147231,28.2920725 C82.41384,28.0617871 82.6337837,27.8833186 82.8745607,27.7566616 C83.0862146,27.6530332 83.318695,27.6012197 83.5720089,27.6012197 C83.8483514,27.6012197 84.0733876,27.6645473 84.2471243,27.7912042 C84.4323753,27.9178612 84.5720784,28.1078438 84.6662379,28.3611577 C84.7675146,28.7181001 84.7495893,29.1556357 84.6124615,29.6737779 L84.2010799,31.2281965 C84.0639521,31.7463386 83.8502871,32.1838743 83.5600787,32.5408166 C83.3318386,32.7941306 83.0915766,32.9841131 82.8392853,33.1107701 C82.5985083,33.2374271 82.3399525,33.3007546 82.06361,33.3007546 Z" id="Combined-Shape" fill="#FFFFFF" fill-rule="nonzero"></path>
    </g>
</svg>
